!!!OTL: Claveles rojos
**kern
*I"Guitarra acústica
*I'Guit. ac.
!!pagebreak:original
*clefG2
*Trd0c0
*k[b-]
*d:
*M6/8
!LO:TX:t=[quarter]=120
16bb-LL
16aa
16gg
16aaJJ
=1
8bb-L
16ggL
16ff
16ee
16ddJJ
8aL
8.gg
16gg#XJk
=2
(4.aa
4aa)
8r
=3
8eeL
8gg#X
8bb-J
8dddL
16ccc#XL
16ddd
16ccc#
16dddJJ
=4
8eeeL
8ccc#X
16aaL
16ggJJ
4.gg
=5
8r
16dddLL
16ccc#XJ
8dddJ
8bb-L
8gg
8eeJ
!!linebreak:original
=6
8r
16dddLL
16ccc#XJ
8dddJ
8bb-L
8gg
8eeJ
=7
8r
16bb-LL
16aaJ
8bb-J
8ggL
8ee
8cc#XJ
=8
16ddLL
16cc#X
16dd
16ee
16gg
16eeJJ
16ffLL
16ggJJ
4bb-
=9
8bb-L
16dddL
16ccc#XJ
8dddJ
8bb-L
8gg
8eeJ
=10
8ffL
16cccnL
16bb-J
8cccJ
8aaL
8ff
8ddJ
!!linebreak:original
=11
16bb-LL
16aa
16gg
16ff
16ee
16ddJJ
16cc#XLL
16b-
16a
16g
16f
16eJJ
=12
4.d
8r
16eeLL
16ccc#X
16ddd
16eeeJJ
=13
(4.fff
4fff)
8r
=14!|:
(4.ff
4ff)
8r
=15
4ee
8dd
8cc#X
4ee
=16
8.ddL
16b-k
8gJ
8gL
8f
8eJ
!!linebreak:original
=17
16dLL
16c#X
16d
16e
16f
16eJJ
16fLL
16gJJ
4a
=18
8gg
4ee
4dd
8cc
=19
4a
8dd
8ccL
8bn
(8aJ
=20
4a)
8g
8d#X
4e
=21
(4.f
4f)
8r
=22
8ee
4gg
4ff
8dd
=23
8cc#X
4ee
4dd
8cc#
!!linebreak:original
=24
8ddL
8cc
8g#XJ
4a
8a
=25
(4.f
4f)
!LO:TX:a:B:t=Fine
8r
=26:|!
8aL
8dd
8cc#XJ
4.dd
=27
(4.b-
4b-)
8r
=28
8ee
4dd
8cc#X
4dd
=29
(4.f
4f)
8r
=30
8.ggL
16ffk
8eeJ
8dd
4ff
!!linebreak:original
=31
4a
(8cc#X
8cc#L)
8cc#
8ddJ
=32
8ee
4cc#X
8a
4g
=33
(4.f
4f)
8r
=34
8ee
4gg
4ee
8dd
=35
8cc#X
4ee
4dd
8cc#
=36
8ddL
8cc
8g#XJ
4a
8a
=37
(4.f
4f)
!LO:TX:a:B:t=D.S. al Fine
8r
==
*-